images/textbook/g1.svg

<svg width="120" height="40" viewBox="0 0 120 40" fill="none" xmlns="http://www.w3.org/2000/svg">
<path d="M31.1016 21.3359C30.9297 21.3359 30.7188 21.2031 30.4688 20.9375C30.2812 20.75 30.1875 20.6094 30.1875 20.5156C30.1875 20.4688 30.2188 20.4453 30.2812 20.4453C30.3438 20.4297 30.4219 20.4219 30.5156 20.4219L31.0312 20.3984C31.3281 20.3984 31.5234 20.3906 31.6172 20.375C31.9141 20.375 32.1641 20.3672 32.3672 20.3516C33.7109 20.2266 34.6172 20.125 35.0859 20.0469C35.3203 20.0156 35.5312 19.9844 35.7188 19.9531C35.9062 19.9062 36.0547 19.8828 36.1641 19.8828C36.3828 19.8828 36.6016 19.9922 36.8203 20.2109C36.9922 20.3828 37.0781 20.5234 37.0781 20.6328C37.0781 20.7266 37.0234 20.7891 36.9141 20.8203C36.8359 20.8359 36.375 20.8672 35.5312 20.9141C35.0625 20.9297 34.4844 20.9688 33.7969 21.0312C33.1094 21.0938 32.5078 21.1562 31.9922 21.2188C31.8984 21.2344 31.7656 21.2578 31.5938 21.2891C31.4219 21.3203 31.2578 21.3359 31.1016 21.3359ZM37.9219 15.4297C38 15.4297 38.1172 15.4844 38.2734 15.5938C38.2578 15.625 38.2891 15.6875 38.3672 15.7812C38.4453 15.8594 38.5 15.9141 38.5312 15.9453C38.6094 16.0234 38.6875 16.1172 38.7656 16.2266C38.8594 16.3359 38.9609 16.4531 39.0703 16.5781C39.3516 16.875 40 17.6484 41.0156 18.8984C41.1875 19.1484 41.2734 19.2969 41.2734 19.3438C41.2734 19.5 41.1797 19.5781 40.9922 19.5781C40.8828 19.5781 40.7656 19.5 40.6406 19.3438C40.3438 19.0312 39.8125 18.5391 39.0469 17.8672C38.4531 17.3203 37.9141 16.8984 37.4297 16.6016C37.1953 16.4922 37.0781 16.3672 37.0781 16.2266C37.0781 16.1172 37.1953 15.9609 37.4297 15.7578C37.6484 15.5391 37.8125 15.4297 37.9219 15.4297ZM7.14844 18.6875H28.9453V20.6328H7.14844V18.6875Z" fill="#333333"/>
<path d="M69.4453 16.6953C69.2422 16.6953 69.0938 16.625 69 16.4844C68.8594 16.2812 68.7188 16.1172 68.5781 15.9922C68.4531 15.8672 68.2266 15.6953 67.8984 15.4766L67.9688 15.3594C68.6875 15.6094 69.1953 15.7344 69.4922 15.7344C69.7422 15.7344 70.0156 15.5938 70.3125 15.3125C70.625 15.0156 70.8906 14.5938 71.1094 14.0469C71.2188 13.7969 71.2969 13.5938 71.3438 13.4375C71.4062 13.2656 71.4531 13.0781 71.4844 12.875V12.8281C71.4844 12.6875 71.4141 12.6172 71.2734 12.6172C71.1172 12.6172 70.8359 12.6641 70.4297 12.7578C70.2109 12.8203 69.9219 12.9141 69.5625 13.0391L69.375 12.9922C69.3594 12.9766 69.3203 12.9531 69.2578 12.9219C69.2109 12.875 69.1719 12.8281 69.1406 12.7812C69.0625 12.7031 69.0234 12.6484 69.0234 12.6172L69 12.5234C69 12.4141 69.0547 12.3125 69.1641 12.2188C69.2891 12.125 69.3594 12.0547 69.375 12.0078C69.5 11.8672 69.75 11.5234 70.125 10.9766C70.1562 10.9453 70.2109 10.875 70.2891 10.7656C70.3672 10.6406 70.4062 10.5312 70.4062 10.4375C70.4062 10.3281 69.9453 10.4062 69.0234 10.6719C68.0859 10.9531 67.5938 11.0938 67.5469 11.0938C67.3906 11.0938 67.2266 10.9609 67.0547 10.6953C66.9297 10.5703 66.8672 10.4688 66.8672 10.3906C66.8672 10.2812 67.0234 10.2188 67.3359 10.2031C67.6953 10.1875 68.25 10.125 69 10.0156C69.7656 9.90625 70.2188 9.83594 70.3594 9.80469L70.6875 9.71094C70.7344 9.69531 70.7891 9.6875 70.8516 9.6875C70.8984 9.6875 70.9688 9.71875 71.0625 9.78125C71.1719 9.84375 71.2656 9.89062 71.3438 9.92188C71.5469 10.0156 71.6641 10.125 71.6953 10.25V10.3203C71.6953 10.4609 71.6172 10.6094 71.4609 10.7656C71.3984 10.8281 71.2734 10.9609 71.0859 11.1641C70.8984 11.3516 70.7812 11.4766 70.7344 11.5391C70.6719 11.6016 70.5781 11.7031 70.4531 11.8438C70.3281 11.9844 70.2578 12.0703 70.2422 12.1016C70.2422 12.1484 70.2578 12.1797 70.2891 12.1953C70.3203 12.2109 70.3594 12.2188 70.4062 12.2188C70.875 12.1562 71.2578 12.0859 71.5547 12.0078L71.9297 11.8906C72.1016 11.8906 72.2266 11.9531 72.3047 12.0781C72.4453 12.2344 72.5391 12.3672 72.5859 12.4766C72.6328 12.5703 72.6328 12.6641 72.5859 12.7578C72.5703 12.8047 72.5469 12.8516 72.5156 12.8984C72.4844 12.9453 72.4531 13 72.4219 13.0625C72.4062 13.0938 72.375 13.1562 72.3281 13.25C72.2812 13.3438 72.25 13.4375 72.2344 13.5312C71.9531 14.3438 71.6172 15.0391 71.2266 15.6172C71.0078 15.8828 70.7656 16.1094 70.5 16.2969C70.1406 16.5625 69.7891 16.6953 69.4453 16.6953ZM67.1016 20.6328C66.9297 20.6328 66.7188 20.5 66.4688 20.2344C66.2812 20.0469 66.1875 19.9062 66.1875 19.8125C66.1875 19.7656 66.2188 19.7422 66.2812 19.7422C66.3438 19.7266 66.4219 19.7188 66.5156 19.7188L67.0312 19.6953C67.3281 19.6953 67.5234 19.6875 67.6172 19.6719C67.9141 19.6719 68.1641 19.6641 68.3672 19.6484C69.7109 19.5234 70.6172 19.4219 71.0859 19.3438C71.3203 19.3125 71.5312 19.2812 71.7188 19.25C71.9062 19.2031 72.0547 19.1797 72.1641 19.1797C72.3828 19.1797 72.6016 19.2891 72.8203 19.5078C72.9922 19.6797 73.0781 19.8203 73.0781 19.9297C73.0781 20.0234 73.0234 20.0859 72.9141 20.1172C72.8359 20.1328 72.375 20.1641 71.5312 20.2109C71.0625 20.2266 70.4844 20.2656 69.7969 20.3281C69.1094 20.3906 68.5078 20.4531 67.9922 20.5156C67.8984 20.5312 67.7656 20.5547 67.5938 20.5859C67.4219 20.6172 67.2578 20.6328 67.1016 20.6328ZM70.5938 25.8594C70.4375 26.0625 70.2734 26.1641 70.1016 26.1641C70.0547 26.1641 70.0312 26.125 70.0312 26.0469C70.0312 25.9375 70.0625 25.8125 70.125 25.6719C70.125 25.6719 70.2812 25.3594 70.5938 24.7344C70.6094 24.6719 70.6328 24.6094 70.6641 24.5469C70.6953 24.4844 70.7188 24.4297 70.7344 24.3828V24.3594C70.7344 24.3281 70.7109 24.2969 70.6641 24.2656C70.6172 24.2344 70.5625 24.2266 70.5 24.2422C70.25 24.2578 69.875 24.2969 69.375 24.3594C68.8906 24.4219 68.5312 24.4844 68.2969 24.5469C68.2031 24.5781 68.0859 24.6172 67.9453 24.6641C67.8203 24.7109 67.7188 24.7344 67.6406 24.7344C67.3594 24.7344 67.125 24.6484 66.9375 24.4766C66.7812 24.3672 66.6641 24.2578 66.5859 24.1484L66.5391 24.0312C66.5391 23.9531 66.6719 23.9297 66.9375 23.9609C67.2969 23.9922 68.0391 23.9453 69.1641 23.8203L69.6328 23.75C69.7578 23.7344 69.9531 23.7109 70.2188 23.6797C70.5 23.6328 70.7188 23.5859 70.875 23.5391C70.9219 23.5234 70.9688 23.5078 71.0156 23.4922C71.0781 23.4609 71.1328 23.4453 71.1797 23.4453C71.2578 23.4453 71.3516 23.4844 71.4609 23.5625C71.5859 23.6406 71.6875 23.7109 71.7656 23.7734C71.875 23.8516 71.9453 23.9219 71.9766 23.9844C72.0234 24.0312 72.0391 24.0938 72.0234 24.1719C72.0234 24.25 71.9844 24.3203 71.9062 24.3828C71.8281 24.4453 71.7734 24.4922 71.7422 24.5234C71.7109 24.5703 71.6016 24.6875 71.4141 24.875C71.3359 25 71.1953 25.1719 70.9922 25.3906C70.8047 25.6094 70.6719 25.7656 70.5938 25.8594ZM69.4219 30.4766C69.4219 30.4297 69.5 30.3047 69.6562 30.1016C69.8281 29.9141 69.9609 29.7656 70.0547 29.6562C70.2891 29.3438 70.5703 28.8906 70.8984 28.2969C71.2422 27.7031 71.4375 27.3125 71.4844 27.125C71.5156 27.0312 71.4688 26.9844 71.3438 26.9844C71.0938 26.9844 70.4062 27.0547 69.2812 27.1953C68.5469 27.2891 68 27.3828 67.6406 27.4766C67.5625 27.5234 67.4844 27.5469 67.4062 27.5469C67.2812 27.5469 67.1484 27.4609 67.0078 27.2891C66.9453 27.1797 66.9141 27.0781 66.9141 26.9844C66.9141 26.9219 66.9531 26.8594 67.0312 26.7969L67.1016 26.7031C67.1484 26.6094 67.2031 26.4844 67.2656 26.3281C67.3281 26.1719 67.3828 26.0234 67.4297 25.8828C67.5078 25.6328 67.5625 25.3594 67.5938 25.0625C67.6094 24.8906 67.7031 24.8438 67.875 24.9219C68.0938 25.0312 68.2578 25.1406 68.3672 25.25C68.4922 25.3438 68.5312 25.4141 68.4844 25.4609C68.3281 25.6484 68.2031 25.8594 68.1094 26.0938C68.0312 26.3438 67.9844 26.5078 67.9688 26.5859C67.9688 26.6484 68.0078 26.6797 68.0859 26.6797C68.3203 26.6797 68.6719 26.6406 69.1406 26.5625C69.4062 26.5312 69.7344 26.4922 70.125 26.4453C70.5156 26.3984 70.8281 26.3516 71.0625 26.3047L71.6484 26.1875C71.6953 26.1719 71.7578 26.1641 71.8359 26.1641C71.9141 26.1641 71.9922 26.1953 72.0703 26.2578C72.1484 26.3047 72.2344 26.3672 72.3281 26.4453C72.4844 26.5859 72.5859 26.7031 72.6328 26.7969C72.6797 26.875 72.7031 26.9688 72.7031 27.0781C72.7031 27.1406 72.6562 27.2188 72.5625 27.3125C72.4844 27.4062 72.3906 27.5547 72.2812 27.7578C71.8281 28.6797 71.2422 29.4531 70.5234 30.0781C70.3203 30.2344 70.0938 30.3672 69.8438 30.4766C69.7344 30.5078 69.6328 30.5234 69.5391 30.5234C69.4609 30.5391 69.4219 30.5234 69.4219 30.4766ZM76.9219 19.6484C77.1094 19.6484 77.2031 19.7344 77.2031 19.9062C77.2031 20 77.1172 20.1328 76.9453 20.3047C76.4766 20.8828 75.5469 21.9844 74.1562 23.6094C74.0469 23.75 73.9453 23.8203 73.8516 23.8203C73.7734 23.8203 73.6016 23.7031 73.3359 23.4688C73.1172 23.2812 73.0078 23.125 73.0078 23C73.0078 22.8594 73.125 22.7266 73.3594 22.6016C73.7188 22.3984 74.2578 21.9922 74.9766 21.3828C75.6953 20.7422 76.2266 20.2344 76.5703 19.8594C76.7109 19.7188 76.8281 19.6484 76.9219 19.6484ZM48.9375 23.6328H54.3047V18.875H48.9375V23.6328ZM64.8047 23.6328V25.3438H56.1094V30.8516H54.3047V25.3438H43.2188V23.6328H47.1562V17.1875H54.3047V13.5547H48.4688C47.3906 15.3984 46.1797 16.9688 44.8359 18.2656C44.2109 17.7344 43.6953 17.3594 43.2891 17.1406C44.4141 16.1562 45.4531 14.9297 46.4062 13.4609C47.375 11.9922 48.1406 10.4609 48.7031 8.86719L50.4844 9.28906C50.2656 9.83594 49.8984 10.6797 49.3828 11.8203H63.7031V13.5547H56.1094V17.1875H63.1406V18.875H56.1094V23.6328H64.8047Z" fill="#333333"/>
<path d="M107.414 19.6016C107.305 19.6016 107.188 19.5312 107.062 19.3906C106.969 19.2812 106.906 19.1953 106.875 19.1328C106.844 19.0547 106.844 18.9531 106.875 18.8281L106.898 18.2656C106.914 18.1562 106.922 17.8906 106.922 17.4688V16.6953L106.219 17.0234L105.398 17.375C105.195 17.4531 104.984 17.5469 104.766 17.6562C104.578 17.75 104.414 17.7969 104.273 17.7969C104.164 17.7812 104.039 17.7422 103.898 17.6797C103.758 17.6172 103.648 17.5625 103.57 17.5156C103.398 17.4062 103.32 17.2891 103.336 17.1641L103.406 16.9297C103.406 16.8047 103.414 16.6953 103.43 16.6016L103.453 15.2422V13.9766C103.453 13.7266 103.438 13.5156 103.406 13.3438C103.375 13.1562 103.352 13.0234 103.336 12.9453C103.336 12.8672 103.359 12.8125 103.406 12.7812C103.422 12.7656 103.461 12.7578 103.523 12.7578C103.633 12.7578 103.844 12.8281 104.156 12.9688C104.422 13.0938 104.531 13.25 104.484 13.4375C104.453 13.5469 104.422 13.7109 104.391 13.9297L104.32 16.625C104.32 16.7031 104.328 16.7656 104.344 16.8125C104.375 16.8438 104.406 16.8594 104.438 16.8594C104.625 16.8594 104.852 16.8047 105.117 16.6953C105.617 16.5391 106.047 16.3828 106.406 16.2266L106.922 16.0156V14.4688C106.922 13.8438 106.883 13.2422 106.805 12.6641C106.789 12.6172 106.781 12.5625 106.781 12.5C106.781 12.3438 106.844 12.2656 106.969 12.2656C106.984 12.2656 107.07 12.2969 107.227 12.3594C107.461 12.4844 107.633 12.5938 107.742 12.6875C107.852 12.7812 107.914 12.8359 107.93 12.8516C107.992 12.8984 108.023 12.9453 108.023 12.9922C108.023 13.0234 108.008 13.0625 107.977 13.1094C107.961 13.1562 107.945 13.1953 107.93 13.2266L107.859 13.9297L107.836 16.0859L107.859 18.1719C107.859 18.5312 107.836 18.8438 107.789 19.1094C107.711 19.4375 107.586 19.6016 107.414 19.6016ZM103.102 24.8516C102.93 24.8516 102.719 24.7188 102.469 24.4531C102.281 24.2656 102.188 24.125 102.188 24.0312C102.188 23.9844 102.219 23.9609 102.281 23.9609C102.344 23.9453 102.422 23.9375 102.516 23.9375L103.031 23.9141C103.328 23.9141 103.523 23.9062 103.617 23.8906C103.914 23.8906 104.164 23.8828 104.367 23.8672C105.711 23.7422 106.617 23.6406 107.086 23.5625C107.32 23.5312 107.531 23.5 107.719 23.4688C107.906 23.4219 108.055 23.3984 108.164 23.3984C108.383 23.3984 108.602 23.5078 108.82 23.7266C108.992 23.8984 109.078 24.0391 109.078 24.1484C109.078 24.2422 109.023 24.3047 108.914 24.3359C108.836 24.3516 108.375 24.3828 107.531 24.4297C107.062 24.4453 106.484 24.4844 105.797 24.5469C105.109 24.6094 104.508 24.6719 103.992 24.7344C103.898 24.75 103.766 24.7734 103.594 24.8047C103.422 24.8359 103.258 24.8516 103.102 24.8516ZM112.922 17.0703C113.109 17.0703 113.203 17.1562 113.203 17.3281C113.203 17.4219 113.117 17.5547 112.945 17.7266C112.477 18.3047 111.547 19.4062 110.156 21.0312C110.047 21.1719 109.945 21.2422 109.852 21.2422C109.773 21.2422 109.602 21.125 109.336 20.8906C109.117 20.7031 109.008 20.5469 109.008 20.4219C109.008 20.2812 109.125 20.1484 109.359 20.0234C109.719 19.8203 110.258 19.4141 110.977 18.8047C111.695 18.1641 112.227 17.6562 112.57 17.2812C112.711 17.1406 112.828 17.0703 112.922 17.0703ZM88.5469 22.7188L87.1406 23.2578C87.0781 22.8984 86.9609 22.4375 86.7891 21.875C82.7109 22.5156 80.4531 22.9531 80.0156 23.1875C79.875 22.6719 79.6875 22.1172 79.4531 21.5234C79.8125 21.4609 80.4062 20.9375 81.2344 19.9531C81.75 19.375 82.4219 18.4688 83.25 17.2344C81.3906 17.4531 80.2656 17.6484 79.875 17.8203C79.7031 17.2109 79.5078 16.6641 79.2891 16.1797C79.6328 16.1016 80.0859 15.6641 80.6484 14.8672C81.0078 14.3828 81.5078 13.5469 82.1484 12.3594C82.8047 11.1719 83.3516 10 83.7891 8.84375L85.4531 9.54688C84.3438 11.9062 83.1172 14.0234 81.7734 15.8984L84.2812 15.6641C84.7969 14.8516 85.4062 13.7734 86.1094 12.4297L87.6562 13.3438C85.8906 16.4219 84.0859 19 82.2422 21.0781L86.3672 20.4688C86.2891 20.2812 85.9922 19.5547 85.4766 18.2891L86.7656 17.8438C87.6875 19.6875 88.2812 21.3125 88.5469 22.7188ZM80.4375 24.2422L81.8906 24.5234C81.625 26.7891 81.2188 28.7109 80.6719 30.2891C80.5312 30.2109 80.0703 30.0391 79.2891 29.7734C79.7578 28.5859 80.1406 26.7422 80.4375 24.2422ZM83.0156 24.4062L84.3047 24.1484C84.6797 26.1797 84.8984 27.7734 84.9609 28.9297L83.6016 29.2344C83.5234 27.9375 83.3281 26.3281 83.0156 24.4062ZM85.6172 23.9609L86.8828 23.5859C87.5078 25.2578 87.9141 26.5391 88.1016 27.4297L86.7656 27.8984C86.625 27.0391 86.2422 25.7266 85.6172 23.9609ZM98.25 18.4766H93.4453C94.0391 20.7422 94.8281 22.6875 95.8125 24.3125C96.875 22.625 97.6875 20.6797 98.25 18.4766ZM96.375 11.75H92.3906C92.3281 14.0469 92.2656 15.7578 92.2031 16.8828H95.4844C95.875 14.8359 96.1719 13.125 96.375 11.75ZM99.1641 16.8125L100.266 17.1875C99.625 20.6094 98.4922 23.5078 96.8672 25.8828C98.0703 27.3984 99.4766 28.5156 101.086 29.2344C100.602 29.625 100.195 30.125 99.8672 30.7344C98.3516 29.9688 96.9922 28.8203 95.7891 27.2891C94.5078 28.8047 93.0938 29.9922 91.5469 30.8516C91.2344 30.2734 90.8516 29.8281 90.3984 29.5156C92.0547 28.6406 93.5078 27.4062 94.7578 25.8125C93.6328 23.9531 92.7266 21.6875 92.0391 19.0156C91.5547 24.1406 90.3672 28.0312 88.4766 30.6875C88.0391 30.25 87.5234 29.8828 86.9297 29.5859C88.3828 27.7734 89.3516 25.4609 89.8359 22.6484C90.3359 19.8359 90.6094 16.2031 90.6562 11.75H88.2891V10.0625H96.7734L97.0547 9.96875L98.2734 10.1562C97.9766 12.4375 97.6094 14.6797 97.1719 16.8828H98.8594L99.1641 16.8125Z" fill="#333333"/>
</svg>

<svg xmlns="http://www.w3.org/2000/svg" width="120" height="40" fill="none"><path fill="#333" d="M31.102 21.336c-.172 0-.383-.133-.633-.398-.188-.188-.282-.329-.282-.422 0-.047.032-.07.094-.07a.989.989 0 0 1 .235-.024l.515-.024c.297 0 .492-.007.586-.023.297 0 .547-.008.75-.023 1.344-.125 2.25-.227 2.719-.305.234-.031.445-.063.633-.094a1.95 1.95 0 0 1 .445-.07c.219 0 .438.11.656.328.172.172.258.312.258.422 0 .094-.055.156-.164.187-.078.016-.539.047-1.383.094-.468.016-1.047.055-1.734.117-.688.063-1.29.125-1.805.188-.094.015-.226.039-.398.07a2.759 2.759 0 0 1-.492.047Zm6.82-5.906c.078 0 .195.054.351.164-.015.031.016.094.094.187l.164.164c.078.078.157.172.235.282.093.109.195.226.304.351.282.297.93 1.07 1.946 2.32.172.25.257.399.257.446 0 .156-.093.234-.28.234-.11 0-.227-.078-.352-.234-.297-.313-.828-.805-1.594-1.477-.594-.547-1.133-.969-1.617-1.265-.235-.11-.352-.235-.352-.375 0-.11.117-.266.352-.47.218-.218.383-.327.492-.327ZM7.148 18.688h21.797v1.945H7.148v-1.945ZM69.445 16.695c-.203 0-.351-.07-.445-.21a2.745 2.745 0 0 0-.422-.493c-.125-.125-.351-.297-.68-.515l.07-.118c.72.25 1.227.375 1.524.375.25 0 .524-.14.82-.421.313-.297.579-.72.797-1.266.11-.25.188-.453.235-.61.062-.171.11-.359.14-.562v-.047c0-.14-.07-.21-.21-.21-.157 0-.438.046-.844.14-.22.062-.508.156-.868.281l-.187-.047a.541.541 0 0 0-.117-.07.933.933 0 0 1-.117-.14c-.079-.079-.118-.134-.118-.165L69 12.523c0-.109.055-.21.164-.304.125-.094.195-.164.211-.211.125-.14.375-.485.75-1.031.031-.032.086-.102.164-.211a.645.645 0 0 0 .117-.329c0-.109-.46-.03-1.383.235-.937.281-1.43.422-1.476.422-.156 0-.32-.133-.492-.399-.125-.125-.188-.226-.188-.304 0-.11.156-.172.469-.188.36-.015.914-.078 1.664-.187.766-.11 1.219-.18 1.36-.211l.328-.094a.52.52 0 0 1 .164-.024c.046 0 .117.032.21.094.11.063.204.11.282.14.203.095.32.204.351.329v.07c0 .14-.078.29-.234.446-.063.062-.188.195-.375.398a4.749 4.749 0 0 0-.352.375 7.787 7.787 0 0 0-.28.305c-.126.14-.196.226-.212.258 0 .046.016.078.047.093a.26.26 0 0 0 .117.024 9.713 9.713 0 0 0 1.149-.211l.375-.117c.172 0 .297.062.375.187.14.156.234.29.28.399a.299.299 0 0 1 0 .28.587.587 0 0 1-.07.141 1.536 1.536 0 0 0-.093.165l-.094.187a.992.992 0 0 0-.094.281c-.28.813-.617 1.508-1.007 2.086a3.723 3.723 0 0 1-.727.68c-.36.265-.71.398-1.055.398Zm-2.343 3.938c-.172 0-.383-.133-.633-.399-.188-.187-.281-.328-.281-.422 0-.046.03-.07.093-.07a.989.989 0 0 1 .235-.023l.515-.024c.297 0 .492-.008.586-.023.297 0 .547-.008.75-.024 1.344-.125 2.25-.226 2.719-.304.234-.032.445-.063.633-.094a1.95 1.95 0 0 1 .445-.07c.219 0 .438.11.656.328.172.172.258.312.258.422 0 .093-.055.156-.164.187-.078.016-.539.047-1.383.094a31.25 31.25 0 0 0-1.734.117 61.47 61.47 0 0 0-1.805.188c-.094.015-.226.039-.398.07a2.75 2.75 0 0 1-.492.047Zm3.492 5.226c-.156.203-.32.305-.492.305-.047 0-.07-.039-.07-.117 0-.11.03-.235.093-.375l.469-.938a.912.912 0 0 1 .07-.187c.031-.063.055-.117.07-.164v-.024c0-.03-.023-.062-.07-.093a.198.198 0 0 0-.164-.024c-.25.016-.625.055-1.125.117a9.057 9.057 0 0 0-1.078.188l-.352.117a.92.92 0 0 1-.304.07c-.282 0-.516-.086-.704-.257a1.446 1.446 0 0 1-.351-.329l-.047-.117c0-.078.133-.101.398-.07.36.031 1.102-.016 2.227-.14l.469-.071c.125-.016.32-.04.586-.07.281-.047.5-.094.656-.14l.14-.048a.377.377 0 0 1 .165-.047c.078 0 .172.04.28.117.126.079.228.149.306.211.109.079.18.149.21.211.047.047.063.11.047.188 0 .078-.039.148-.117.21-.078.063-.133.11-.164.141-.031.047-.14.165-.328.352a3.856 3.856 0 0 1-.422.516c-.187.218-.32.375-.398.468Zm-1.172 4.618c0-.047.078-.172.234-.375.172-.188.305-.336.399-.446.234-.312.515-.765.843-1.36.344-.593.54-.983.586-1.171.032-.094-.015-.14-.14-.14-.25 0-.938.07-2.063.21-.734.094-1.281.188-1.64.282a.453.453 0 0 1-.235.07c-.125 0-.258-.086-.398-.258a.621.621 0 0 1-.094-.305c0-.062.04-.125.117-.187l.07-.094a8.115 8.115 0 0 0 .328-.82 4.24 4.24 0 0 0 .165-.82c.015-.172.11-.22.281-.141.219.11.383.219.492.328.125.094.164.164.117.21a2.334 2.334 0 0 0-.375.634c-.078.25-.125.414-.14.492 0 .062.039.094.117.094.234 0 .586-.04 1.055-.117.265-.032.593-.07.984-.118.39-.047.703-.093.938-.14l.585-.117a.61.61 0 0 1 .188-.024c.078 0 .156.031.234.094.078.047.164.11.258.187.156.14.258.258.305.352.047.078.07.172.07.281 0 .063-.047.14-.14.235a2.83 2.83 0 0 0-.282.445 7.293 7.293 0 0 1-1.758 2.32c-.203.156-.43.29-.68.399-.109.03-.21.046-.304.046-.078.016-.117 0-.117-.046Zm7.5-10.829c.187 0 .281.086.281.258 0 .094-.086.227-.258.399-.468.578-1.398 1.68-2.789 3.304-.11.141-.21.211-.304.211-.079 0-.25-.117-.516-.351-.219-.188-.328-.344-.328-.469 0-.14.117-.273.351-.398.36-.204.899-.61 1.618-1.22.718-.64 1.25-1.148 1.593-1.523.14-.14.258-.21.352-.21Zm-27.984 3.985h5.367v-4.758h-5.367v4.758Zm15.867 0v1.71h-8.696v5.509h-1.804v-5.508H43.219v-1.711h3.937v-6.445h7.149v-3.633h-5.836c-1.078 1.843-2.29 3.414-3.633 4.71-.625-.53-1.14-.906-1.547-1.124 1.125-.985 2.164-2.211 3.117-3.68.969-1.469 1.735-3 2.297-4.594l1.781.422a69.79 69.79 0 0 1-1.101 2.531h14.32v1.735H56.11v3.633h7.032v1.687h-7.032v4.758h8.696ZM107.414 19.602c-.109 0-.226-.07-.352-.211a1.452 1.452 0 0 1-.187-.258.504.504 0 0 1 0-.305l.023-.562c.016-.11.024-.375.024-.797v-.774l-.703.328-.821.352a7.116 7.116 0 0 0-.632.281c-.188.094-.352.14-.493.14a1.461 1.461 0 0 1-.375-.116 3.201 3.201 0 0 1-.328-.164c-.172-.11-.25-.227-.234-.352l.07-.234c0-.125.008-.235.024-.328l.023-1.36v-1.265c0-.25-.015-.461-.047-.633-.031-.188-.054-.32-.07-.399 0-.078.023-.133.07-.164.016-.015.055-.023.117-.023.11 0 .321.07.633.21.266.126.375.282.328.47-.031.109-.062.273-.093.492l-.071 2.695c0 .078.008.14.024.188.031.03.062.046.094.046.187 0 .414-.054.679-.164.5-.156.93-.312 1.289-.468l.516-.211v-1.547c0-.625-.039-1.227-.117-1.805a.508.508 0 0 1-.024-.164c0-.156.063-.234.188-.234.015 0 .101.03.258.093a2.988 2.988 0 0 1 .703.493c.062.046.093.093.093.14 0 .031-.015.07-.046.117a1.09 1.09 0 0 1-.047.118l-.071.703-.023 2.156.023 2.086c0 .36-.023.672-.07.937-.078.328-.203.493-.375.493Zm-4.312 5.25c-.172 0-.383-.133-.633-.399-.188-.187-.281-.328-.281-.422 0-.047.031-.07.093-.07a.995.995 0 0 1 .235-.023l.515-.024c.297 0 .492-.008.586-.023.297 0 .547-.008.75-.024 1.344-.125 2.25-.226 2.719-.305.234-.03.445-.062.633-.093a1.95 1.95 0 0 1 .445-.07c.219 0 .438.109.656.328.172.171.258.312.258.421 0 .094-.055.157-.164.188-.078.016-.539.047-1.383.094-.469.015-1.047.054-1.734.117-.688.062-1.289.125-1.805.187l-.398.07a2.76 2.76 0 0 1-.492.048Zm9.82-7.782c.187 0 .281.086.281.258 0 .094-.086.227-.258.399a194.68 194.68 0 0 1-2.789 3.304c-.109.14-.211.211-.304.211-.079 0-.25-.117-.516-.351-.219-.188-.328-.344-.328-.47 0-.14.117-.273.351-.398.36-.203.899-.609 1.618-1.218.718-.64 1.25-1.149 1.593-1.524.141-.14.258-.21.352-.21ZM88.547 22.72l-1.406.539c-.063-.36-.18-.82-.352-1.383-4.078.64-6.336 1.078-6.773 1.313-.141-.516-.329-1.07-.563-1.665.36-.062.953-.585 1.781-1.57.516-.578 1.188-1.484 2.016-2.719-1.86.22-2.984.414-3.375.586a11.741 11.741 0 0 0-.586-1.64c.344-.078.797-.516 1.36-1.313.359-.484.859-1.32 1.5-2.508a27.132 27.132 0 0 0 1.64-3.515l1.664.703c-1.11 2.36-2.336 4.476-3.68 6.351l2.508-.234c.516-.812 1.125-1.89 1.828-3.234l1.547.914c-1.765 3.078-3.57 5.656-5.414 7.734l4.125-.61c-.078-.187-.375-.913-.89-2.179l1.289-.445c.921 1.843 1.515 3.468 1.78 4.875Zm-8.11 1.523 1.454.281c-.266 2.266-.672 4.188-1.22 5.766-.14-.078-.6-.25-1.382-.516.469-1.187.852-3.03 1.148-5.53Zm2.579.164 1.289-.258c.375 2.032.593 3.625.656 4.782l-1.36.304c-.078-1.297-.273-2.906-.585-4.828Zm2.601-.445 1.266-.375c.625 1.672 1.031 2.953 1.219 3.844l-1.336.468c-.141-.859-.524-2.171-1.149-3.937Zm12.633-5.484h-4.805c.594 2.265 1.383 4.21 2.368 5.835 1.062-1.687 1.874-3.632 2.437-5.835Zm-1.875-6.727h-3.984a199.548 199.548 0 0 1-.188 5.133h3.281c.391-2.047.688-3.758.891-5.133Zm2.79 5.063 1.101.375c-.641 3.421-1.774 6.32-3.399 8.695 1.203 1.515 2.61 2.633 4.219 3.351-.484.391-.891.891-1.219 1.5-1.515-.765-2.875-1.914-4.078-3.445-1.281 1.516-2.695 2.703-4.242 3.563-.313-.579-.695-1.024-1.149-1.336 1.657-.875 3.11-2.11 4.36-3.703-1.125-1.86-2.031-4.125-2.719-6.797-.484 5.125-1.672 9.015-3.562 11.672a5.897 5.897 0 0 0-1.547-1.102c1.453-1.813 2.422-4.125 2.906-6.938.5-2.812.773-6.445.82-10.898H88.29v-1.688h8.484l.282-.093 1.218.187a102.256 102.256 0 0 1-1.101 6.727h1.687l.305-.07Z"/></svg>
